X:1
T: Lady Eliza Lindsay
C:
R:Reel
Q: 232
K:C
M:4/4
L:1/8
|:G,1/2A,1/2B,|C2 C2 c3e|dc BA G3F|E2 ec G2 ge|dc de d2 G,1/2A,1/2B,|
C2 C2 c3e|dc BA G3F|EG EC DF DB,|C2 C2 C2 dc|
BG Bd g2 df|ec cB c2 c_B|AF Ac f2 Ac|BG G^F G2 G=F|
Ec cE Fd dF|Ge eG f2 gf|eg ec de dB|c2 c2 c2:|
